X:1
T:The Mill House
R:reel
M:4/4
L:1/8
K:A
ed|:c2BA FE~E2|A,B,CE FDAF|EFAB cfec|cBBA Befe|
|c2BA FE~E2|A,B,CE FDAF|EFAB cfec|1 BAGB Aeed:|2 BAGB ABcd|]
|e2ce a2ba|f2fa ecAF|EFAB cfec|cBBA Bdcd|
|e2ce a2ba|f2fa ecAF|EFAB cfec|BAGB ABcd|
|e2ce a2ba|f2fa ecAF|EFAB cfec|cBBA Befe|
|c2BA FE~E2|A,B,CE FDAF|EFAB cfec|BAGB Aeed|